svg/design/quill_pen_line.svg

<?xml version="1.0" encoding="UTF-8"?>
<svg width="24px" height="24px" viewBox="0 0 24 24" version="1.1" xmlns="http://www.w3.org/2000/svg" xmlns:xlink="http://www.w3.org/1999/xlink">
    <title>quill_pen_line</title>
    <g id="页面-1" stroke="none" stroke-width="1" fill="none" fill-rule="evenodd">
        <g id="Design" transform="translate(-480.000000, 0.000000)">
            <g id="quill_pen_line" transform="translate(480.000000, 0.000000)">
                 <path d="M24,0 L24,24 L0,24 L0,0 L24,0 Z M12.5934901,23.257841 L12.5819402,23.2595131 L12.5108777,23.2950439 L12.4918791,23.2987469 L12.4918791,23.2987469 L12.4767152,23.2950439 L12.4056548,23.2595131 C12.3958229,23.2563662 12.3870493,23.2590235 12.3821421,23.2649074 L12.3780323,23.275831 L12.360941,23.7031097 L12.3658947,23.7234994 L12.3769048,23.7357139 L12.4804777,23.8096931 L12.4953491,23.8136134 L12.4953491,23.8136134 L12.5071152,23.8096931 L12.6106902,23.7357139 L12.6232938,23.7196733 L12.6232938,23.7196733 L12.6266527,23.7031097 L12.609561,23.275831 C12.6075724,23.2657013 12.6010112,23.2592993 12.5934901,23.257841 L12.5934901,23.257841 Z M12.8583906,23.1452862 L12.8445485,23.1473072 L12.6598443,23.2396597 L12.6498822,23.2499052 L12.6498822,23.2499052 L12.6471943,23.2611114 L12.6650943,23.6906389 L12.6699349,23.7034178 L12.6699349,23.7034178 L12.678386,23.7104931 L12.8793402,23.8032389 C12.8914285,23.8068999 12.9022333,23.8029875 12.9078286,23.7952264 L12.9118235,23.7811639 L12.8776777,23.1665331 C12.8752882,23.1545897 12.8674102,23.1470016 12.8583906,23.1452862 L12.8583906,23.1452862 Z M12.1430473,23.1473072 C12.1332178,23.1423925 12.1221763,23.1452606 12.1156365,23.1525954 L12.1099173,23.1665331 L12.0757714,23.7811639 C12.0751323,23.7926639 12.0828099,23.8018602 12.0926481,23.8045676 L12.108256,23.8032389 L12.3092106,23.7104931 L12.3186497,23.7024347 L12.3186497,23.7024347 L12.3225043,23.6906389 L12.340401,23.2611114 L12.337245,23.2485176 L12.337245,23.2485176 L12.3277531,23.2396597 L12.1430473,23.1473072 Z" id="MingCute" fill-rule="nonzero"></path>
                <path d="M5.70821,13.3496 C6.3327,11.4305 7.45808,8.97098 9.46459,6.96447 C13.3986,3.03043 19.1172,2.44872 19.2619,2.43416 C19.3386,2.42645 19.4974,2.41874 19.6844,2.48197 C19.8978,2.55415 20.0837,2.69913 20.2058,2.88827 C20.4141,3.20137 21.5853,5.17098 20.0147,7.5508 C19.9367,7.66899 19.8428,7.78418 19.7386,7.89549 C19.7513,8.01579 19.7422,8.14042 19.7083,8.26411 C19.5195,8.95363 19.2754,9.67684 18.9594,10.4002 C18.4079,11.6631 17.6313,12.9399 16.5357,14.0355 C14.4857,16.0855 11.7943,17.0271 9.69205,17.4663 C8.63099,17.688 7.69346,17.7872 7.0192,17.8311 C6.94619,17.8359 6.87619,17.84 6.80937,17.8436 C6.77801,18.0912 6.5,20.5711 6.5,21 C6.5,21.5523 6.05229,22 5.5,22 C4.94772,22 4.5,21.5522 4.5,21 C4.5,20.4288 4.6163,19.3305 4.72139,18.4398 C4.9257,16.7082 5.16676,15.0135 5.70821,13.3496 Z M18.3454,6.44911 C18.8723,5.65078 18.8645,4.96914 18.7599,4.52997 C17.2335,4.80498 13.5414,5.71605 10.8788,8.37868 C9.17534,10.0821 8.17939,12.2188 7.61005,13.9684 C7.37877,14.6792 7.22112,15.3161 7.1158,15.819 C7.69469,15.7732 8.44693,15.6832 9.28307,15.5086 C11.2031,15.1075 13.4615,14.2813 15.1214,12.6213 C15.9709,11.7719 16.6045,10.7636 17.0753,9.71555 C16.0989,10.2357 15.057,10.7017 14.3163,10.9486 C13.7923,11.1233 13.226,10.8401 13.0514,10.3162 C12.8767,9.79224 13.1599,9.22592 13.6838,9.05127 C14.3583,8.82646 15.4424,8.33773 16.4381,7.7857 C16.9324,7.51168 17.3842,7.23343 17.7394,6.97791 C18.1228,6.70212 18.2996,6.51857 18.3454,6.44911 Z" id="形状" fill="#09244B"></path>
            </g>
        </g>
    </g>
</svg>

<svg xmlns="http://www.w3.org/2000/svg" width="24" height="24"><g fill="none" fill-rule="evenodd"><path d="M24 0v24H0V0h24ZM12.593 23.258l-.011.002-.071.035-.02.004-.014-.004-.071-.035c-.01-.004-.019-.001-.024.005l-.004.01-.017.428.005.02.01.013.104.074.015.004.012-.004.104-.074.012-.016.004-.017-.017-.427c-.002-.01-.009-.017-.017-.018Zm.265-.113-.013.002-.185.093-.01.01-.003.011.018.43.005.012.008.007.201.093c.012.004.023 0 .029-.008l.004-.014-.034-.614c-.003-.012-.01-.02-.02-.022Zm-.715.002a.023.023 0 0 0-.027.006l-.006.014-.034.614c0 .012.007.02.017.024l.015-.002.201-.093.01-.008.004-.011.017-.43-.003-.012-.01-.01-.184-.092Z"/><path fill="#09244B" d="M5.708 13.35c.625-1.92 1.75-4.379 3.757-6.386 3.934-3.934 9.652-4.515 9.797-4.53a1.005 1.005 0 0 1 .944.454c.208.313 1.38 2.283-.191 4.663a2.63 2.63 0 0 1-.276.344.996.996 0 0 1-.03.37c-.19.689-.434 1.412-.75 2.135-.551 1.263-1.328 2.54-2.423 3.636-2.05 2.05-4.742 2.991-6.844 3.43a19.357 19.357 0 0 1-2.883.378C6.778 18.09 6.5 20.57 6.5 21a1 1 0 1 1-2 0c0-.571.116-1.67.221-2.56.205-1.732.446-3.427.987-5.09Zm12.637-6.9c.527-.8.52-1.48.415-1.92-1.527.275-5.219 1.186-7.881 3.849-1.704 1.703-2.7 3.84-3.269 5.59-.231.71-.389 1.347-.494 1.85a17.417 17.417 0 0 0 2.167-.31c1.92-.402 4.179-1.228 5.838-2.888.85-.85 1.484-1.857 1.954-2.905-.976.52-2.018.986-2.759 1.233a1 1 0 1 1-.632-1.898c.674-.225 1.758-.713 2.754-1.265.494-.274.946-.553 1.301-.808.384-.276.56-.46.606-.529Z"/></g></svg>
